X:96
T:Westminster Bridge
M:C
L:1/8
B:Thompson's Compleat Collection of 200 Favourite Country Dances, vol. 1 (London, 1757)
Z:Transcribed and edited by Fynnian Titford-Mock, 2007
Z:abc's:AK/Fiddler's Companion
K:D
D|FAdc B2A2|Begf (e/d/c/B) AG|FAdc B2 Af|eacB A3:|
|:e|ceag f2 a2|bgfe dcBA|(3FDF B2 (3AFA d2|BdFE D3:|

